X: 11444
T: Easy Street
R: reel
M: 4/4
K: Gmajor
|:"Am"EAAB cded|"Am"(3cdc Bc BAGE|"G" DGGD GABc|d2 cB B2 "Am"A2|EAAB cded|
[1 "Am"(3cdc BA "G"G2Bd|"Em"edBe dBcd|egdB "Am"A2 EE:|2 "Am"(3cdc BA "G"G2 GE|DEGA "Am"cBAc|"Em"BAGE "Am"A3 E||
|:"Am"ABcA BcAB|cded cBAc|"G" BBdB "Em"BeBd|gedc BAGB|
"Am"ABcA cdeg|"G"bage g3g|"Am"agea "Em"geBd|egdB "Am"A3E:|

